svgs/sharp-regular/option.svg

<svg xmlns="http://www.w3.org/2000/svg" viewBox="0 0 640 512"><!--! Font Awesome Pro 6.6.0 by @fontawesome - https://fontawesome.com License - https://fontawesome.com/license (Commercial License) Copyright 2024 Fonticons, Inc. --><path d="M176 64l11 0 7.2 8.4L475 400l141 0 24 0 0 48-24 0-152 0-11 0-7.2-8.4L165 112 24 112 0 112 0 64l24 0 152 0zm440 0l24 0 0 48-24 0-176 0-24 0 0-48 24 0 176 0z"/></svg>

<svg xmlns="http://www.w3.org/2000/svg" viewBox="0 0 640 512"><!--! Font Awesome Pro 6.4.2 by @fontawesome - https://fontawesome.com License - https://fontawesome.com/license (Commercial License) Copyright 2023 Fonticons, Inc. --><path d="M176 64h11l7.2 8.4L475 400H616h24v48H616 464 453l-7.2-8.4L165 112H24 0V64H24 176zm440 0h24v48H616 440 416V64h24H616z"/></svg>
